Gruvbox-Plus-Dark/devices/scalable/drive-multidisk.svg

<svg width="256" height="256" style="isolation:isolate" version="1.1" viewBox="0 0 256 256" xmlns="http://www.w3.org/2000/svg">
  <defs>
    <filter id="a-3" x="-.04224" y="-.0452" width="1.084" height="1.108" color-interpolation-filters="sRGB">
      <feGaussianBlur in="SourceGraphic" stdDeviation="4.294"/>
      <feOffset dy="4" result="pf_100_offsetBlur"/>
      <feFlood flood-opacity=".4"/>
      <feComposite in2="pf_100_offsetBlur" operator="in" result="pf_100_dropShadow"/>
      <feBlend in="SourceGraphic" in2="pf_100_dropShadow"/>
    </filter>
    <linearGradient id="b-5" x1=".5002" x2=".5002" y2="1" gradientTransform="matrix(244,0,0,228,5.981,12.12)" gradientUnits="userSpaceOnUse">
      <stop stop-color="#83a598" offset="0"/>
      <stop stop-color="#458588" offset="1"/>
    </linearGradient>
    <linearGradient id="linearGradient31" x1=".5002" x2=".5002" y2="1" gradientTransform="matrix(244,0,0,228,5.986,12)" gradientUnits="userSpaceOnUse">
      <stop stop-color="#ebdbb2" offset="0"/>
      <stop stop-color="#ebdbb2" stop-opacity=".09804" offset=".1"/>
      <stop stop-color="#282828" stop-opacity=".1" offset=".9"/>
      <stop stop-color="#282828" stop-opacity=".4" offset="1"/>
    </linearGradient>
  </defs>
  <g transform="translate(9.09e-6 -.12)" filter="url(#a-3)" style="isolation:isolate">
    <path d="m165 12.12c72 0 85 15 85 87v56c0 70-13 85-85 85h-74c-72 0-85-15-85-85v-56c0-72 13-87 85-87z" fill="url(#b-5)"/>
  </g>
  <g transform="translate(9.09e-6 -.12)" opacity=".5" style="isolation:isolate">
    <path transform="translate(-.004996 .116)" d="m91 12c-72 0-85 15-85 87v56c0 70 13 85 85 85h74c72 0 85-15 85-85v-56c0-72-13-87-85-87zm0 4h74c68 0 80 15 80 83v56c0 66-12 81-80 81h-74c-68 0-80-15-80-81v-56c0-68 12-83 80-83z" fill="url(#linearGradient31)" opacity="1"/>
  </g>
  <g transform="translate(-1.08e-6 4.018)" style="isolation:isolate">
    <path d="m173.4 108h7.591c2.192 0 3.972 1.78 3.972 3.972v12.2c0 2.192-1.78 3.972-3.972 3.972h-7.591c-2.193 0-3.972-1.78-3.972-3.972v-12.2c0-2.192 1.779-3.972 3.972-3.972z" fill="#3c2826"/>
    <path d="m75.01 108h7.591c2.193 0 3.972 1.78 3.972 3.972v12.2c0 2.192-1.779 3.972-3.972 3.972h-7.591c-2.192 0-3.972-1.78-3.972-3.972v-12.2c0-2.192 1.78-3.972 3.972-3.972z" fill="#3c2826"/>
    <defs>
      <filter id="jk3zLATGzjyK7wiI3vmvO0Sw0gzOD2Sg" x="-.07107" y="-.199" width="1.142" height="1.398" color-interpolation-filters="sRGB">
        <feGaussianBlur stdDeviation="4.294"/>
      </filter>
    </defs>
    <g filter="url(#jk3zLATGzjyK7wiI3vmvO0Sw0gzOD2Sg)" opacity=".4">
      <path d="m200.5 110v-31.07c0-5.716-4.641-10.36-10.36-10.36h-124.3c-5.716 0-10.36 4.641-10.36 10.36v31.07c0 5.716 4.641 10.36 10.36 10.36h124.3c5.716 0 10.36-4.641 10.36-10.36z"/>
    </g>
    <defs>
      <linearGradient id="_lgradient_32" x1="33.17" x2="141.8" y1="123.1" y2="123.1" gradientTransform="scale(1.673 .5976)" gradientUnits="userSpaceOnUse">
        <stop stop-color="#d5c4a1" offset="0"/>
        <stop stop-color="#ebdbb2" offset="1"/>
      </linearGradient>
    </defs>
    <path d="m200.5 107.8v-31.79c0-5.519-4.481-10-10-10h-125c-5.519 0-10 4.481-10 10v31.79c0 5.519 4.481 10 10 10h125c5.519 0 10-4.481 10-10z" fill="url(#_lgradient_32)"/>
    <defs>
      <filter id="rN8yfkLOTET2fMNcbX9j7vwMYh6zMZrq" x="-.6633" y="-.6633" width="2.327" height="2.327" color-interpolation-filters="sRGB">
        <feGaussianBlur stdDeviation="4.294"/>
      </filter>
    </defs>
    <g filter="url(#rN8yfkLOTET2fMNcbX9j7vwMYh6zMZrq)" opacity=".4">
      <circle cx="172" cy="94.48" r="7.768" vector-effect="non-scaling-stroke"/>
    </g>
    <linearGradient id="_lgradient_33" x2="0" y2="1" gradientTransform="matrix(15.54 0 0 15.54 164.2 84.12)" gradientUnits="userSpaceOnUse">
      <stop stop-color="#8ec07c" offset="0"/>
      <stop stop-color="#458588" offset="1"/>
    </linearGradient>
    <circle cx="172" cy="91.89" r="7.768" fill="url(#_lgradient_33)" vector-effect="non-scaling-stroke"/>
    <g opacity=".2">
      <path d="m65.86 66c-5.738 0-10.36 4.619-10.36 10.36v2.589c0-5.737 4.619-10.36 10.36-10.36h124.3c5.738 0 10.36 4.62 10.36 10.36v-2.589c0-5.738-4.619-10.36-10.36-10.36z" fill="#ebdbb2"/>
    </g>
    <path d="m173.4 167h7.591c2.192 0 3.972 1.78 3.972 3.972v12.2c0 2.192-1.78 3.972-3.972 3.972h-7.591c-2.193 0-3.972-1.78-3.972-3.972v-12.2c0-2.192 1.779-3.972 3.972-3.972z" fill="#3c2826"/>
    <path d="m75.01 167h7.591c2.193 0 3.972 1.78 3.972 3.972v12.2c0 2.192-1.779 3.972-3.972 3.972h-7.591c-2.192 0-3.972-1.78-3.972-3.972v-12.2c0-2.192 1.78-3.972 3.972-3.972z" fill="#3c2826"/>
    <defs>
      <filter id="DalvUkvxj7tuY3i7rp7aTnLTlNkJCqbM" x="-.07107" y="-.199" width="1.142" height="1.398" color-interpolation-filters="sRGB">
        <feGaussianBlur stdDeviation="4.294"/>
      </filter>
    </defs>
    <g filter="url(#DalvUkvxj7tuY3i7rp7aTnLTlNkJCqbM)" opacity=".4">
      <path d="m200.5 169v-31.07c0-5.716-4.641-10.36-10.36-10.36h-124.3c-5.716 0-10.36 4.641-10.36 10.36v31.07c0 5.716 4.641 10.36 10.36 10.36h124.3c5.716 0 10.36-4.641 10.36-10.36z"/>
    </g>
    <defs>
      <linearGradient id="_lgradient_36" x1="33.17" x2="141.8" y1="221.8" y2="221.8" gradientTransform="scale(1.673 .5976)" gradientUnits="userSpaceOnUse">
        <stop stop-color="#d5c4a1" offset="0"/>
        <stop stop-color="#ebdbb2" offset="1"/>
      </linearGradient>
    </defs>
    <path d="m200.5 166.8v-31.79c0-5.519-4.481-10-10-10h-125c-5.519 0-10 4.481-10 10v31.79c0 5.519 4.481 10 10 10h125c5.519 0 10-4.481 10-10z" fill="url(#_lgradient_36)"/>
    <defs>
      <filter id="xlCdmaouqN8hBdYy4xETXv9M9Ctrtz5B" x="-.6633" y="-.6633" width="2.327" height="2.327" color-interpolation-filters="sRGB">
        <feGaussianBlur stdDeviation="4.294"/>
      </filter>
    </defs>
    <g filter="url(#xlCdmaouqN8hBdYy4xETXv9M9Ctrtz5B)" opacity=".4">
      <circle cx="172" cy="153.5" r="7.768" vector-effect="non-scaling-stroke"/>
    </g>
    <linearGradient id="_lgradient_37" x2="0" y2="1" gradientTransform="matrix(15.54 0 0 15.54 164.2 143.1)" gradientUnits="userSpaceOnUse">
      <stop stop-color="#8ec07c" offset="0"/>
      <stop stop-color="#458588" offset="1"/>
    </linearGradient>
    <circle cx="172" cy="150.9" r="7.768" fill="url(#_lgradient_37)" vector-effect="non-scaling-stroke"/>
    <g opacity=".2">
      <path d="m65.86 125c-5.738 0-10.36 4.619-10.36 10.36v2.589c0-5.737 4.619-10.36 10.36-10.36h124.3c5.738 0 10.36 4.62 10.36 10.36v-2.589c0-5.738-4.619-10.36-10.36-10.36z" fill="#ebdbb2"/>
    </g>
  </g>
</svg>

<svg xmlns="http://www.w3.org/2000/svg" style="isolation:isolate" width="256" height="256" viewBox="0 0 256 256">
 <defs>
  <clipPath id="_clipPath_zx019e2t1kQVUUhajs6TYid1d0KqzLr8">
   <rect width="256" height="256"/>
  </clipPath>
 </defs>
 <g clip-path="url(#_clipPath_zx019e2t1kQVUUhajs6TYid1d0KqzLr8)">
  <defs>
   <filter id="i9GX9zIAKg85iY6ikJgicIQLUks5XO8c" width="400%" height="400%" x="-200%" y="-200%" color-interpolation-filters="sRGB" filterUnits="objectBoundingBox">
    <feGaussianBlur xmlns="http://www.w3.org/2000/svg" in="SourceGraphic" stdDeviation="4.294"/>
    <feOffset xmlns="http://www.w3.org/2000/svg" dx="0" dy="4" result="pf_100_offsetBlur"/>
    <feFlood xmlns="http://www.w3.org/2000/svg" flood-opacity=".4"/>
    <feComposite xmlns="http://www.w3.org/2000/svg" in2="pf_100_offsetBlur" operator="in" result="pf_100_dropShadow"/>
    <feBlend xmlns="http://www.w3.org/2000/svg" in="SourceGraphic" in2="pf_100_dropShadow" mode="normal"/>
   </filter>
  </defs>
  <g filter="url(#i9GX9zIAKg85iY6ikJgicIQLUks5XO8c)">
   <linearGradient id="_lgradient_28" x1=".5" x2=".5" y1="0" y2="1" gradientTransform="matrix(244.648,0,0,228.338,5.68,11.95)" gradientUnits="userSpaceOnUse">
    <stop offset="0%" style="stop-color:#83a598"/>
    <stop offset="100%" style="stop-color:#458588"/>
   </linearGradient>
   <path fill="url(#_lgradient_28)" d="M 165.689 11.95 C 239.745 11.95 250.328 22.507 250.328 96.494 L 250.328 155.745 C 250.328 229.731 239.745 240.288 165.689 240.288 L 90.319 240.288 C 16.264 240.288 5.68 229.731 5.68 155.745 L 5.68 96.494 C 5.68 22.507 16.264 11.95 90.319 11.95 L 165.689 11.95 Z"/>
  </g>
  <g opacity=".4">
   <linearGradient id="_lgradient_29" x1=".517" x2=".517" y1="0" y2="1" gradientTransform="matrix(244.65,0,0,228.34,5.68,11.95)" gradientUnits="userSpaceOnUse">
    <stop offset="0%" style="stop-color:#ebdbb2"/>
    <stop offset="12.5%" stop-opacity=".098" style="stop-color:#ebdbb2"/>
    <stop offset="92.5%" stop-opacity=".098" style="stop-color:#282828"/>
    <stop offset="100%" stop-opacity=".498" style="stop-color:#282828"/>
   </linearGradient>
   <path fill="url(#_lgradient_29)" fill-rule="evenodd" d="M 165.068 11.951 C 169.396 11.941 173.724 11.991 178.052 12.089 C 181.927 12.167 185.803 12.315 189.678 12.541 C 193.131 12.737 196.583 13.022 200.026 13.395 C 203.085 13.73 206.144 14.181 209.174 14.741 C 211.889 15.243 214.574 15.881 217.22 16.657 C 219.62 17.355 221.971 18.219 224.243 19.241 C 226.358 20.184 228.384 21.304 230.302 22.591 C 232.142 23.829 233.863 25.244 235.437 26.806 C 237.001 28.378 238.417 30.088 239.656 31.925 C 240.945 33.841 242.066 35.865 243.02 37.967 C 244.043 40.247 244.909 42.585 245.617 44.972 C 246.394 47.615 247.034 50.297 247.535 53.009 C 248.096 56.035 248.548 59.081 248.883 62.136 C 249.257 65.575 249.542 69.014 249.739 72.462 C 249.965 76.323 250.112 80.194 250.201 84.055 C 250.289 88.378 250.339 92.701 250.329 97.014 L 250.329 155.226 C 250.339 159.549 250.289 163.862 250.201 168.185 C 250.112 172.056 249.965 175.917 249.739 179.778 C 249.542 183.226 249.257 186.675 248.883 190.104 C 248.548 193.159 248.096 196.215 247.535 199.241 C 247.034 201.943 246.394 204.625 245.617 207.268 C 244.909 209.655 244.043 212.003 243.02 214.273 C 242.066 216.385 240.945 218.399 239.656 220.315 C 238.417 222.152 237.001 223.872 235.437 225.434 C 233.863 226.996 232.142 228.411 230.302 229.649 C 228.384 230.936 226.358 232.056 224.243 232.999 C 221.971 234.021 219.62 234.885 217.22 235.593 C 214.574 236.369 211.889 237.007 209.174 237.499 C 206.144 238.068 203.085 238.51 200.026 238.845 C 196.583 239.218 193.131 239.503 189.678 239.699 C 185.803 239.925 181.927 240.073 178.052 240.161 C 173.724 240.249 169.396 240.299 165.068 240.289 L 90.942 240.289 C 86.614 240.299 82.286 240.249 77.958 240.161 C 74.083 240.073 70.207 239.925 66.332 239.699 C 62.879 239.503 59.427 239.218 55.984 238.845 C 52.925 238.51 49.866 238.068 46.836 237.499 C 44.121 237.007 41.436 236.369 38.79 235.593 C 36.39 234.885 34.039 234.021 31.767 232.999 C 29.652 232.056 27.626 230.936 25.708 229.649 C 23.868 228.411 22.147 226.996 20.573 225.434 C 19.009 223.872 17.593 222.152 16.354 220.315 C 15.065 218.399 13.944 216.385 12.99 214.273 C 11.967 212.003 11.101 209.655 10.393 207.268 C 9.616 204.625 8.976 201.943 8.475 199.241 C 7.914 196.215 7.462 193.159 7.127 190.104 C 6.753 186.675 6.468 183.226 6.271 179.778 C 6.045 175.917 5.898 172.056 5.809 168.185 C 5.721 163.862 5.671 159.549 5.681 155.226 L 5.681 97.014 C 5.671 92.701 5.721 88.378 5.809 84.055 C 5.898 80.194 6.045 76.323 6.271 72.462 C 6.468 69.014 6.753 65.575 7.127 62.136 C 7.462 59.081 7.914 56.035 8.475 53.009 C 8.976 50.297 9.616 47.615 10.393 44.972 C 11.101 42.585 11.967 40.247 12.99 37.967 C 13.944 35.865 15.065 33.841 16.354 31.925 C 17.593 30.088 19.009 28.378 20.573 26.806 C 22.147 25.244 23.868 23.829 25.708 22.591 C 27.626 21.304 29.652 20.184 31.767 19.241 C 34.039 18.219 36.39 17.355 38.79 16.657 C 41.436 15.881 44.121 15.243 46.836 14.741 C 49.866 14.181 52.925 13.73 55.984 13.395 C 59.427 13.022 62.879 12.737 66.332 12.541 C 70.207 12.315 74.083 12.167 77.958 12.089 C 82.286 11.991 86.614 11.941 90.942 11.951 L 165.068 11.951 Z M 165.078 15.96 C 169.376 15.95 173.675 15.999 177.973 16.087 C 181.8 16.176 185.626 16.323 189.452 16.539 C 192.836 16.736 196.219 17.011 199.583 17.384 C 202.554 17.699 205.515 18.131 208.446 18.681 C 211.023 19.153 213.58 19.762 216.099 20.499 C 218.322 21.147 220.495 21.953 222.6 22.896 C 224.509 23.751 226.338 24.763 228.069 25.922 C 229.692 27.013 231.207 28.26 232.594 29.646 C 233.981 31.031 235.23 32.544 236.332 34.165 C 237.492 35.894 238.506 37.712 239.361 39.608 C 240.306 41.72 241.112 43.892 241.761 46.102 C 242.509 48.617 243.109 51.162 243.591 53.736 C 244.132 56.664 244.565 59.611 244.889 62.578 C 245.263 65.938 245.539 69.308 245.735 72.688 C 245.952 76.51 246.109 80.322 246.188 84.144 C 246.276 88.437 246.325 92.721 246.325 97.014 C 246.325 97.014 246.325 97.014 246.325 97.014 L 246.325 155.226 C 246.325 155.226 246.325 155.226 246.325 155.226 C 246.325 159.519 246.276 163.803 246.188 168.096 C 246.109 171.918 245.952 175.74 245.735 179.552 C 245.539 182.932 245.263 186.302 244.889 189.672 C 244.565 192.629 244.132 195.576 243.591 198.504 C 243.109 201.078 242.509 203.623 241.761 206.138 C 241.112 208.358 240.306 210.52 239.361 212.632 C 238.506 214.528 237.492 216.356 236.332 218.075 C 235.23 219.706 233.981 221.219 232.594 222.604 C 231.207 223.98 229.692 225.227 228.069 226.318 C 226.338 227.477 224.509 228.489 222.6 229.344 C 220.495 230.297 218.322 231.093 216.099 231.741 C 213.58 232.478 211.023 233.087 208.446 233.559 C 205.515 234.109 202.554 234.541 199.583 234.865 C 196.219 235.229 192.836 235.514 189.452 235.701 C 185.626 235.917 181.8 236.074 177.973 236.153 C 173.675 236.251 169.376 236.29 165.078 236.29 C 165.078 236.29 165.078 236.29 165.068 236.29 L 90.942 236.29 C 90.932 236.29 90.932 236.29 90.932 236.29 C 86.634 236.29 82.335 236.251 78.037 236.153 C 74.21 236.074 70.384 235.917 66.558 235.701 C 63.174 235.514 59.791 235.229 56.427 234.865 C 53.456 234.541 50.495 234.109 47.564 233.559 C 44.987 233.087 42.43 232.478 39.911 231.741 C 37.688 231.093 35.515 230.297 33.41 229.344 C 31.501 228.489 29.672 227.477 27.941 226.318 C 26.318 225.227 24.803 223.98 23.416 222.604 C 22.029 221.219 20.78 219.706 19.678 218.075 C 18.518 216.356 17.504 214.528 16.649 212.632 C 15.704 210.52 14.898 208.358 14.249 206.138 C 13.501 203.623 12.901 201.078 12.419 198.504 C 11.878 195.576 11.445 192.629 11.121 189.672 C 10.747 186.302 10.472 182.932 10.275 179.552 C 10.058 175.74 9.901 171.918 9.822 168.096 C 9.734 163.803 9.685 159.519 9.685 155.226 C 9.685 155.226 9.685 155.226 9.685 155.226 L 9.685 97.014 C 9.685 97.014 9.685 97.014 9.685 97.014 C 9.685 92.721 9.734 88.437 9.822 84.144 C 9.901 80.322 10.058 76.51 10.275 72.688 C 10.472 69.308 10.747 65.938 11.121 62.578 C 11.445 59.611 11.878 56.664 12.419 53.736 C 12.901 51.162 13.501 48.617 14.249 46.102 C 14.898 43.892 15.704 41.72 16.649 39.608 C 17.504 37.712 18.518 35.894 19.678 34.165 C 20.78 32.544 22.029 31.031 23.416 29.646 C 24.803 28.26 26.318 27.013 27.941 25.922 C 29.672 24.763 31.501 23.751 33.41 22.896 C 35.515 21.953 37.688 21.147 39.911 20.499 C 42.43 19.762 44.987 19.153 47.564 18.681 C 50.495 18.131 53.456 17.699 56.427 17.384 C 59.791 17.011 63.174 16.736 66.558 16.539 C 70.384 16.323 74.21 16.176 78.037 16.087 C 82.335 15.999 86.634 15.95 90.932 15.96 C 90.932 15.96 90.932 15.96 90.942 15.96 L 165.068 15.96 C 165.078 15.96 165.078 15.96 165.078 15.96 Z"/>
  </g>
  <g>
   <g>
    <defs>
     <linearGradient id="_lgradient_30" x1="0" x2="0" y1="0" y2="1">
      <stop offset="0%" style="stop-color:#665c54"/>
      <stop offset="100%" style="stop-color:#282828"/>
     </linearGradient>
    </defs>
    <path d="M 173.401 108 L 180.992 108 C 183.184 108 184.964 109.78 184.964 111.972 L 184.964 124.171 C 184.964 126.363 183.184 128.143 180.992 128.143 L 173.401 128.143 C 171.208 128.143 169.429 126.363 169.429 124.171 L 169.429 111.972 C 169.429 109.78 171.208 108 173.401 108 Z" style="fill:url(#_lgradient_30)"/>
    <defs>
     <linearGradient id="_lgradient_31" x1="0" x2="0" y1="0" y2="1">
      <stop offset="0%" style="stop-color:#665c54"/>
      <stop offset="100%" style="stop-color:#282828"/>
     </linearGradient>
    </defs>
    <path d="M 75.008 108 L 82.599 108 C 84.792 108 86.571 109.78 86.571 111.972 L 86.571 124.171 C 86.571 126.363 84.792 128.143 82.599 128.143 L 75.008 128.143 C 72.816 128.143 71.036 126.363 71.036 124.171 L 71.036 111.972 C 71.036 109.78 72.816 108 75.008 108 Z" style="fill:url(#_lgradient_31)"/>
    <defs>
     <filter id="jk3zLATGzjyK7wiI3vmvO0Sw0gzOD2Sg" width="400%" height="400%" x="-200%" y="-200%" color-interpolation-filters="sRGB" filterUnits="objectBoundingBox">
      <feGaussianBlur xmlns="http://www.w3.org/2000/svg" stdDeviation="4.294"/>
     </filter>
    </defs>
    <g opacity=".4" filter="url(#jk3zLATGzjyK7wiI3vmvO0Sw0gzOD2Sg)">
     <path d="M 200.5 110.018 L 200.5 78.946 C 200.5 73.23 195.859 68.589 190.143 68.589 L 65.857 68.589 C 60.141 68.589 55.5 73.23 55.5 78.946 L 55.5 110.018 C 55.5 115.734 60.141 120.375 65.857 120.375 L 190.143 120.375 C 195.859 120.375 200.5 115.734 200.5 110.018 Z"/>
    </g>
    <defs>
     <linearGradient id="_lgradient_32" x1="0" x2="1.254" y1=".146" y2=".146">
      <stop offset="0%" style="stop-color:#d5c4a1"/>
      <stop offset="100%" style="stop-color:#ebdbb2"/>
     </linearGradient>
    </defs>
    <path d="M 200.5 107.786 L 200.5 76 C 200.5 70.481 196.019 66 190.5 66 L 65.5 66 C 59.981 66 55.5 70.481 55.5 76 L 55.5 107.786 C 55.5 113.305 59.981 117.786 65.5 117.786 L 190.5 117.786 C 196.019 117.786 200.5 113.305 200.5 107.786 Z" style="fill:url(#_lgradient_32)"/>
    <defs>
     <filter id="rN8yfkLOTET2fMNcbX9j7vwMYh6zMZrq" width="400%" height="400%" x="-200%" y="-200%" color-interpolation-filters="sRGB" filterUnits="objectBoundingBox">
      <feGaussianBlur xmlns="http://www.w3.org/2000/svg" stdDeviation="4.294"/>
     </filter>
    </defs>
    <g opacity=".4" filter="url(#rN8yfkLOTET2fMNcbX9j7vwMYh6zMZrq)">
     <circle cx="172.018" cy="94.482" r="7.768" vector-effect="non-scaling-stroke"/>
    </g>
    <linearGradient id="_lgradient_33" x1="0" x2="0" y1="0" y2="1" gradientTransform="matrix(15.536,0,0,15.536,164.25,84.125)" gradientUnits="userSpaceOnUse">
     <stop offset="0%" style="stop-color:#8ec07c"/>
     <stop offset="100%" style="stop-color:#458588"/>
    </linearGradient>
    <circle fill="url(#_lgradient_33)" cx="172.018" cy="91.893" r="7.768" vector-effect="non-scaling-stroke"/>
    <g opacity=".2">
     <path fill="#ebdbb2" d="M 65.857 66 C 60.119 66 55.5 70.619 55.5 76.357 L 55.5 78.946 C 55.5 73.209 60.119 68.589 65.857 68.589 L 190.143 68.589 C 195.881 68.589 200.5 73.209 200.5 78.946 L 200.5 76.357 C 200.5 70.619 195.881 66 190.143 66 L 65.857 66 Z"/>
    </g>
   </g>
   <g>
    <defs>
     <linearGradient id="_lgradient_34" x1="0" x2="0" y1="0" y2="1">
      <stop offset="0%" style="stop-color:#665c54"/>
      <stop offset="100%" style="stop-color:#282828"/>
     </linearGradient>
    </defs>
    <path d="M 173.401 167 L 180.992 167 C 183.184 167 184.964 168.78 184.964 170.972 L 184.964 183.171 C 184.964 185.363 183.184 187.143 180.992 187.143 L 173.401 187.143 C 171.208 187.143 169.429 185.363 169.429 183.171 L 169.429 170.972 C 169.429 168.78 171.208 167 173.401 167 Z" style="fill:url(#_lgradient_34)"/>
    <defs>
     <linearGradient id="_lgradient_35" x1="0" x2="0" y1="0" y2="1">
      <stop offset="0%" style="stop-color:#665c54"/>
      <stop offset="100%" style="stop-color:#282828"/>
     </linearGradient>
    </defs>
    <path d="M 75.008 167 L 82.599 167 C 84.792 167 86.571 168.78 86.571 170.972 L 86.571 183.171 C 86.571 185.363 84.792 187.143 82.599 187.143 L 75.008 187.143 C 72.816 187.143 71.036 185.363 71.036 183.171 L 71.036 170.972 C 71.036 168.78 72.816 167 75.008 167 Z" style="fill:url(#_lgradient_35)"/>
    <defs>
     <filter id="DalvUkvxj7tuY3i7rp7aTnLTlNkJCqbM" width="400%" height="400%" x="-200%" y="-200%" color-interpolation-filters="sRGB" filterUnits="objectBoundingBox">
      <feGaussianBlur xmlns="http://www.w3.org/2000/svg" stdDeviation="4.294"/>
     </filter>
    </defs>
    <g opacity=".4" filter="url(#DalvUkvxj7tuY3i7rp7aTnLTlNkJCqbM)">
     <path d="M 200.5 169.018 L 200.5 137.946 C 200.5 132.23 195.859 127.589 190.143 127.589 L 65.857 127.589 C 60.141 127.589 55.5 132.23 55.5 137.946 L 55.5 169.018 C 55.5 174.734 60.141 179.375 65.857 179.375 L 190.143 179.375 C 195.859 179.375 200.5 174.734 200.5 169.018 Z"/>
    </g>
    <defs>
     <linearGradient id="_lgradient_36" x1="0" x2="1.254" y1=".146" y2=".146">
      <stop offset="0%" style="stop-color:#d5c4a1"/>
      <stop offset="100%" style="stop-color:#ebdbb2"/>
     </linearGradient>
    </defs>
    <path d="M 200.5 166.786 L 200.5 135 C 200.5 129.481 196.019 125 190.5 125 L 65.5 125 C 59.981 125 55.5 129.481 55.5 135 L 55.5 166.786 C 55.5 172.305 59.981 176.786 65.5 176.786 L 190.5 176.786 C 196.019 176.786 200.5 172.305 200.5 166.786 Z" style="fill:url(#_lgradient_36)"/>
    <defs>
     <filter id="xlCdmaouqN8hBdYy4xETXv9M9Ctrtz5B" width="400%" height="400%" x="-200%" y="-200%" color-interpolation-filters="sRGB" filterUnits="objectBoundingBox">
      <feGaussianBlur xmlns="http://www.w3.org/2000/svg" stdDeviation="4.294"/>
     </filter>
    </defs>
    <g opacity=".4" filter="url(#xlCdmaouqN8hBdYy4xETXv9M9Ctrtz5B)">
     <circle cx="172.018" cy="153.482" r="7.768" vector-effect="non-scaling-stroke"/>
    </g>
    <linearGradient id="_lgradient_37" x1="0" x2="0" y1="0" y2="1" gradientTransform="matrix(15.536,0,0,15.536,164.25,143.125)" gradientUnits="userSpaceOnUse">
     <stop offset="0%" style="stop-color:#8ec07c"/>
     <stop offset="100%" style="stop-color:#458588"/>
    </linearGradient>
    <circle fill="url(#_lgradient_37)" cx="172.018" cy="150.893" r="7.768" vector-effect="non-scaling-stroke"/>
    <g opacity=".2">
     <path fill="#ebdbb2" d="M 65.857 125 C 60.119 125 55.5 129.619 55.5 135.357 L 55.5 137.946 C 55.5 132.209 60.119 127.589 65.857 127.589 L 190.143 127.589 C 195.881 127.589 200.5 132.209 200.5 137.946 L 200.5 135.357 C 200.5 129.619 195.881 125 190.143 125 L 65.857 125 Z"/>
    </g>
   </g>
  </g>
 </g>
</svg>
